resources/icons/color/dataflow.svg

<svg width="64" height="64" fill="none" xmlns="http://www.w3.org/2000/svg"><path d="M6 13C6 9.13401 9.13401 6 13 6H51C54.866 6 58 9.13401 58 13V51C58 54.866 54.866 58 51 58H13C9.13401 58 6 54.866 6 51V13Z" fill="url(#icon-8225e424f82712d4__paint0_linear_55562_453)"/><path d="M6 13C6 9.13401 9.13401 6 13 6H51C54.866 6 58 9.13401 58 13V51C58 54.866 54.866 58 51 58H13C9.13401 58 6 54.866 6 51V13Z" fill="url(#icon-c8bd8e0d0903e3a0__paint1_radial_55562_453)" fill-opacity="0.2"/><path fill-rule="evenodd" clip-rule="evenodd" d="M51 7H13C9.68629 7 7 9.68629 7 13V51C7 54.3137 9.68629 57 13 57H51C54.3137 57 57 54.3137 57 51V13C57 9.68629 54.3137 7 51 7ZM13 6C9.13401 6 6 9.13401 6 13V51C6 54.866 9.13401 58 13 58H51C54.866 58 58 54.866 58 51V13C58 9.13401 54.866 6 51 6H13Z" fill="url(#icon-b975757884c5c5a2__paint2_linear_55562_453)"/><path d="M26.75 27.9298C28.6006 27.5787 30 25.9528 30 24C30 21.7909 28.2091 20 26 20C23.7909 20 22 21.7909 22 24C22 25.9528 23.3994 27.5788 25.25 27.9298L25.25 36.0702C23.3994 36.4213 22 38.0472 22 40C22 42.2091 23.7909 44 26 44C28.2091 44 30 42.2091 30 40C30 38.0472 28.6006 36.4213 26.75 36.0702L26.75 32.7964L33.9998 32.7964C36.6232 32.7964 38.7498 30.6698 38.7498 28.0464V27.9298C40.6005 27.5789 42 25.9529 42 24C42 21.7909 40.2091 20 38 20C35.7909 20 34 21.7909 34 24C34 25.9527 35.3993 27.5786 37.2498 27.9298V28.0464C37.2498 29.8413 35.7947 31.2964 33.9998 31.2964L26.75 31.2964L26.75 27.9298Z" fill="url(#icon-9df804783967d329__paint3_linear_55562_453)"/><defs><linearGradient id="icon-8225e424f82712d4__paint0_linear_55562_453" x1="20.4444" y1="6" x2="27.0222" y2="58.6222" gradientUnits="userSpaceOnUse"><stop stop-color="white"/><stop offset="1" stop-color="#EBEBEB"/></linearGradient><radialGradient id="icon-c8bd8e0d0903e3a0__paint1_radial_55562_453" cx="0" cy="0" r="1" gradientUnits="userSpaceOnUse" gradientTransform="translate(22.6111 19.5417) rotate(56.3099) scale(49.4762 42.8159)"><stop offset="0.177083" stop-color="white"/><stop offset="1" stop-color="#B8B8B8"/></radialGradient><linearGradient id="icon-b975757884c5c5a2__paint2_linear_55562_453" x1="22.7917" y1="6" x2="29.7931" y2="58.5109" gradientUnits="userSpaceOnUse"><stop stop-color="#BBBBBB"/><stop offset="1" stop-color="#888888"/></linearGradient><linearGradient id="icon-9df804783967d329__paint3_linear_55562_453" x1="22" y1="20" x2="45.6066" y2="39.6721" gradientUnits="userSpaceOnUse"><stop stop-color="#7751B8"/><stop offset="1" stop-color="#5A409C"/></linearGradient></defs></svg>

<svg xmlns="http://www.w3.org/2000/svg" width="64" height="64" fill="none"><path fill="url(#id29ac6-paint0_linear_55562_453)" d="M6 13a7 7 0 0 1 7-7h38a7 7 0 0 1 7 7v38a7 7 0 0 1-7 7H13a7 7 0 0 1-7-7z"/><path fill="url(#id29ac6-paint1_radial_55562_453)" fill-opacity=".2" d="M6 13a7 7 0 0 1 7-7h38a7 7 0 0 1 7 7v38a7 7 0 0 1-7 7H13a7 7 0 0 1-7-7z"/><path fill="url(#id29ac6-paint2_linear_55562_453)" fill-rule="evenodd" d="M51 7H13a6 6 0 0 0-6 6v38a6 6 0 0 0 6 6h38a6 6 0 0 0 6-6V13a6 6 0 0 0-6-6M13 6a7 7 0 0 0-7 7v38a7 7 0 0 0 7 7h38a7 7 0 0 0 7-7V13a7 7 0 0 0-7-7z" clip-rule="evenodd"/><path fill="url(#id29ac6-paint3_linear_55562_453)" d="M26.75 27.93A4.001 4.001 0 0 0 26 20a4 4 0 0 0-.75 7.93v8.14A4.001 4.001 0 0 0 26 44a4 4 0 0 0 .75-7.93v-3.274H34a4.75 4.75 0 0 0 4.75-4.75v-.116a4.001 4.001 0 1 0-1.5 0v.116a3.25 3.25 0 0 1-3.25 3.25h-7.25z"/><defs><linearGradient id="id29ac6-paint0_linear_55562_453" x1="20.444" x2="27.022" y1="6" y2="58.622" gradientUnits="userSpaceOnUse"><stop stop-color="#fff"/><stop offset="1" stop-color="#EBEBEB"/></linearGradient><radialGradient id="id29ac6-paint1_radial_55562_453" cx="0" cy="0" r="1" gradientTransform="matrix(27.44448 41.16667 -35.62497 23.75 22.611 19.542)" gradientUnits="userSpaceOnUse"><stop offset=".177" stop-color="#fff"/><stop offset="1" stop-color="#B8B8B8"/></radialGradient><linearGradient id="id29ac6-paint2_linear_55562_453" x1="22.792" x2="29.793" y1="6" y2="58.511" gradientUnits="userSpaceOnUse"><stop stop-color="#BBB"/><stop offset="1" stop-color="#888"/></linearGradient><linearGradient id="id29ac6-paint3_linear_55562_453" x1="22" x2="45.607" y1="20" y2="39.672" gradientUnits="userSpaceOnUse"><stop stop-color="#7751B8"/><stop offset="1" stop-color="#5A409C"/></linearGradient></defs></svg>
